src/img/lock-02.svg

<svg width="28" height="28" viewBox="0 0 28 28" fill="none" xmlns="http://www.w3.org/2000/svg">
<path d="M19.8333 12.8333V9.33333C19.8333 6.11167 17.2217 3.5 14 3.5C10.7783 3.5 8.16667 6.11167 8.16667 9.33333V12.8333M9.1 24.5H18.9C20.8602 24.5 21.8403 24.5 22.589 24.1185C23.2475 23.783 23.783 23.2475 24.1185 22.589C24.5 21.8403 24.5 20.8602 24.5 18.9V18.4333C24.5 16.4731 24.5 15.4931 24.1185 14.7444C23.783 14.0858 23.2475 13.5504 22.589 13.2148C21.8403 12.8333 20.8602 12.8333 18.9 12.8333H9.1C7.13982 12.8333 6.15972 12.8333 5.41103 13.2148C4.75247 13.5504 4.21703 14.0858 3.88148 14.7444C3.5 15.4931 3.5 16.4731 3.5 18.4333V18.9C3.5 20.8602 3.5 21.8403 3.88148 22.589C4.21703 23.2475 4.75247 23.783 5.41103 24.1185C6.15972 24.5 7.13982 24.5 9.1 24.5Z" stroke="#111111" stroke-width="2" stroke-linecap="round" stroke-linejoin="round"/>
</svg>

<svg xmlns="http://www.w3.org/2000/svg" fill="none" viewBox="0 0 28 28"><path stroke="#111" stroke-linecap="round" stroke-linejoin="round" stroke-width="2" d="M19.833 12.833v-3.5a5.833 5.833 0 1 0-11.666 0v3.5M9.1 24.5h9.8c1.96 0 2.94 0 3.689-.381a3.5 3.5 0 0 0 1.53-1.53c.381-.749.381-1.729.381-3.689v-.467c0-1.96 0-2.94-.381-3.689a3.5 3.5 0 0 0-1.53-1.53c-.749-.38-1.729-.38-3.689-.38H9.1c-1.96 0-2.94 0-3.689.38a3.5 3.5 0 0 0-1.53 1.53c-.381.75-.381 1.73-.381 3.69v.466c0 1.96 0 2.94.381 3.689a3.5 3.5 0 0 0 1.53 1.53c.749.381 1.729.381 3.689.381Z"/></svg>
